docs/icons/dy.svg

<svg width="30" height="34" viewBox="0 0 30 34" fill="none" xmlns="http://www.w3.org/2000/svg">
<path d="M11.6402 13.4341V12.1233C11.1848 12.0686 10.7294 12.0322 10.2557 12.0322C4.60871 12.0322 0 16.6203 0 22.2825C0 25.7417 1.73054 28.8186 4.37189 30.6756C2.65957 28.8368 1.62125 26.3971 1.62125 23.7026C1.63946 18.1132 6.10244 13.5616 11.6402 13.4341Z" fill="#00FAF0"/>
<path d="M11.8774 28.345C14.3912 28.345 16.4497 26.3423 16.5407 23.848V1.5451H20.6212C20.5301 1.08994 20.4937 0.616574 20.4937 0.125H14.9195V22.4279C14.8284 24.9222 12.77 26.9249 10.2561 26.9249C9.47282 26.9249 8.72595 26.7246 8.08838 26.3787C8.94454 27.5803 10.329 28.345 11.8774 28.345Z" fill="#00FAF0"/>
<path d="M28.252 9.11927V7.88124C26.7037 7.88124 25.2464 7.42608 24.0259 6.625C25.1189 7.86304 26.5944 8.75514 28.252 9.11927Z" fill="#00FAF0"/>
<path d="M24.0456 6.6255C22.8615 5.26002 22.1329 3.49399 22.1329 1.5459H20.6392C21.0399 3.65785 22.2968 5.4785 24.0456 6.6255Z" fill="#FF0050"/>
<path d="M10.2558 17.5847C7.6691 17.5847 5.57422 19.6784 5.57422 22.2637C5.57422 24.0662 6.59433 25.6137 8.08807 26.3966C7.54158 25.6319 7.19546 24.6852 7.19546 23.6656C7.19546 21.0803 9.29034 18.9866 11.8771 18.9866C12.3507 18.9866 12.8243 19.0594 13.2615 19.205V13.5246C12.8061 13.47 12.3507 13.4336 11.8771 13.4336C11.8042 13.4336 11.7131 13.4336 11.6402 13.4336V17.8031C11.2031 17.6575 10.7476 17.5847 10.2558 17.5847Z" fill="#FF0050"/>
<path d="M28.253 9.11914V13.4523C25.3566 13.4523 22.697 12.5238 20.511 10.958V22.2642C20.511 27.9082 15.9205 32.5144 10.2553 32.5144C8.06934 32.5144 6.04733 31.8226 4.38965 30.6574C6.26592 32.6601 8.9255 33.9345 11.8948 33.9345C17.5418 33.9345 22.1505 29.3465 22.1505 23.6843V12.3781C24.3365 13.9439 27.0142 14.8724 29.8924 14.8724V9.30121C29.3277 9.283 28.7812 9.22838 28.253 9.11914Z" fill="#FF0050"/>
<path d="M20.5101 22.2648V10.9586C22.696 12.5244 25.3738 13.4529 28.252 13.4529V9.11977C26.5761 8.75565 25.1188 7.86354 24.0258 6.6255C22.2771 5.4967 21.0202 3.67605 20.6376 1.5459H16.5572V23.8488C16.4661 26.3431 14.4076 28.3458 11.8938 28.3458C10.3272 28.3458 8.94275 27.5811 8.1048 26.3977C6.61107 25.6148 5.59096 24.0491 5.59096 22.2648C5.59096 19.6795 7.68584 17.5858 10.2725 17.5858C10.7462 17.5858 11.2198 17.6586 11.657 17.8042V13.4347C6.11923 13.5621 1.65625 18.1138 1.65625 23.6667C1.65625 26.3613 2.69457 28.8191 4.4069 30.6398C6.06458 31.805 8.10481 32.4969 10.2725 32.4969C15.9014 32.5151 20.5101 27.9088 20.5101 22.2648Z" fill="#111111"/>
</svg>

<svg xmlns="http://www.w3.org/2000/svg" width="30" height="34" fill="none" xmlns:v="https://vecta.io/nano"><path d="M11.64 13.434v-1.311a11.45 11.45 0 0 0-1.385-.091C4.609 12.032 0 16.62 0 22.283c0 3.459 1.731 6.536 4.372 8.393a10.18 10.18 0 0 1-2.751-6.973c.018-5.589 4.481-10.141 10.019-10.268zm.237 14.911c2.514 0 4.572-2.003 4.663-4.497V1.545h4.081c-.091-.455-.128-.929-.128-1.42H14.92v22.303c-.091 2.494-2.149 4.497-4.663 4.497a4.56 4.56 0 0 1-2.168-.546c.856 1.202 2.241 1.966 3.789 1.966zM28.252 9.119V7.881c-1.548 0-3.006-.455-4.226-1.256 1.093 1.238 2.569 2.13 4.226 2.494z" fill="#00faf0"/><path d="M24.046 6.626a7.72 7.72 0 0 1-1.913-5.08h-1.494a7.84 7.84 0 0 0 3.406 5.08zm-13.79 10.959a4.68 4.68 0 0 0-4.682 4.679c0 1.802 1.02 3.35 2.514 4.133-.546-.765-.893-1.711-.893-2.731a4.68 4.68 0 0 1 4.682-4.679 4.42 4.42 0 0 1 1.384.218v-5.68c-.455-.055-.911-.091-1.384-.091h-.237v4.37c-.437-.146-.893-.218-1.384-.218zm17.997-8.466v4.333c-2.896 0-5.556-.928-7.742-2.494v11.306c0 5.644-4.59 10.25-10.256 10.25a10.17 10.17 0 0 1-5.866-1.857c1.876 2.003 4.536 3.277 7.505 3.277 5.647 0 10.256-4.588 10.256-10.25V12.378c2.186 1.566 4.864 2.494 7.742 2.494V9.301c-.565-.018-1.111-.073-1.639-.182z" fill="#ff0050"/><path d="M20.51 22.265V10.959c2.186 1.566 4.864 2.494 7.742 2.494V9.12a7.85 7.85 0 0 1-4.226-2.494 7.66 7.66 0 0 1-3.388-5.08h-4.08v22.303c-.091 2.494-2.15 4.497-4.663 4.497-1.567 0-2.951-.765-3.789-1.948-1.494-.783-2.514-2.349-2.514-4.133a4.68 4.68 0 0 1 4.682-4.679c.474 0 .947.073 1.384.218v-4.37A10.26 10.26 0 0 0 1.656 23.667c0 2.695 1.038 5.152 2.751 6.973a10.21 10.21 0 0 0 5.866 1.857c5.629.018 10.238-4.588 10.238-10.232z" fill="#111"/></svg>
